!!!OTL: Die elfjaehrige Markgraefin Es haett' e Buur e' Toechterli,
!!!ARE: Europa, Mitteleuropa, Deutschland
!!!YOR: 2, S. 294
!!    17?? gedruckt
!!!SCT: Q1053I
!!!YEM: Copyright 1995, estate of Helmut Schaffrath.
**kern
*ICvox
*Ivox
*M2/2
*k[b-]
*F:
{4c
=1
4f
4g
4a
4f
=2
2cc
2g
=3
2.f}
{4cc
=4
4cc
4dd
4ee
4cc
=5
2ff
2dd
=6
2.cc}
{4cc
=7
4ff
4ee
4dd
4cc
=8
4ff
4ee
4dd}
{4c
=9
4f
4g
4a
4b-
=10
2cc
2g
=11
2.f}
==
!!!AGN: Ballade, Braut - Werbung, Hochzeit, Minderjaehrige, Tod
!! Melodievergleich zu Q0053 , anderes Lied, aber textverwandt.
!!    Sog. "Normalform" in kleinen Noten gedruckt. Fettgedruckte
!!    Noten kodiert. ! Ungenuegend dokumentiert !
!!!ONB: ESAC (Essen Associative Code) Database: BALLADE
!!!AMT: simple duple
!!!AIN: vox
!!!EED: Helmut Schaffrath
!!!EEV: 1.0
*-
